X:1
T:Standin In The Need of Prayer
T:Mary And Martha
T:Copyright 1918 by Homer A. Rodeheaver
T:Rodeheaver's Plantation Melodies
T:Rodeheaver's Plantation Melodies
Z:Rodeheaver's Plantation Melodies
%%score [ 1 2 3 4 ]
L:1/8
Q:1/4=100
M:4/4
K:F
V:1 treble nm="Soprano" snm="S."
V:2 treble nm="Alto" snm="A."
V:3 bass nm="Tenor" snm="T."
V:4 bass nm="Bass" snm="B."
V:1
 FAAA A2 A2 | A2 F2 F4 | EGGG G2 G2 | G2 F2 F4 | FAAA A2 c2 | c2 A2 A3 A | G2 B2 A2 G2 | F4 A2 F2 | %8
w: |||||||* Cry- ing,|
"^CHORUS" F2 A4 A2 | A2 F2 F4 | E2 G4 G2 | G2 F2 F4 | F2 A4 c2 | c2 A2 A3 A | G2 B2 A2 G2 | F6 | %16
w: ||||||||
 F2 | F2 A4 A2 | A2 F2 F4 | E2 G4 G2 | G2 F2 F4 | F2 A4 c2 | c2 A2 A3 A | G2 B2 A2 G2 | F6 :| %25
w: |||||||||
V:2
 FFFF F2 F2 | F2 C2 C4 | CEEE E2 E2 | E2 C2 C4 | CFFF F2 A2 | A2 F2 F3 F | E2 E2 E2 E2 | F4 z4 | %8
w: Ma- ry and a- Mar- tha's|just gone 'long,|Ma- ry and a- Mar- tha's|just gone 'long,|Ma- ry and a- Mar- tha's|just gone 'long, To|ring dem char- ming|bells;|
 F2 F4 F2 | F2 C2 C4 | C2 E4 E2 | E2 C2 C4 | C2 F4 A2 | A2 F2 F3 F | E2 E2 E2 E2 | F6 | F2 | %17
w: Free grace and|dy- ing love,|Free grace and|dy- ing love,|Free grace and|dy- ing love; To|ring dem char- ming|bells;|Oh!|
 F2 F4 F2 | F2 C2 C4 | C2 E4 E2 | E2 C2 C4 | C2 F4 A2 | A2 F2 F3 F | E2 E2 E2 E2 | C6 :| %25
w: 'way o- ver|Jor- dan, Lord,|'Way o- ver|Jor- dan, Lord,|'Way o- ver|Jor- dan, Lord, To|ring dem char- ming|bells.|
V:3
 A,CCC C2 C2 | C2 A,2 A,4 | G,B,B,B, B,2 B,2 | B,2 A,2 A,4 | B,CCC C2 F2 | F2 C2 C3 C | %6
 C2 D2 C2 B,2 | A,4 z4 | A,2 C4 C2 | C2 A,2 A,4 | G,2 B,4 B,2 | B,2 A,2 A,4 | A,2 C4 F2 | %13
 F2 C2 C3 C | C2 D2 C2 B,2 | A,6 | z2 | A,2 C4 C2 | C2 A,2 A,4 | G,2 B,4 B,2 | B,2 A,2 A,4 | %21
 A,2 C4 F2 | F2 C2 C3 C | C2 D2 C2 B,2 | A,6 :| %25
V:4
 F,F,F,F, F,2 F,2 | F,2 F,2 F,4 | C,C,C,C, C,2 C,2 | C,2 F,2 F,4 | F,F,F,F, F,2 F,2 | %5
 F,2 F,2 F,3 F, | C,2 C,2 C,2 C,2 | F,4 z4 | F,2 F,4 F,2 | F,2 F,2 F,4 | C,2 C,4 C,2 | %11
 C,2 F,2 F,4 | F,2 F,4 F,2 | F,2 F,2 F,3 F, | C,2 C,2 C,2 C,2 | F,6 | z2 | F,2 F,4 F,2 | %18
 F,2 F,2 F,4 | C,2 C,4 C,2 | %20
"_1. Mary and Martha's just gone 'long.\n\n2. The preacher and the elder's just gone 'long.\n\n3. My father and mother's just gone 'long.\n\n4. The Methodist and Baptist's just gone 'long." C,2 F,2 F,4 | %21
 F,2 F,4 F,2 | F,2 F,2 F,3 F, | C,2 C,2 C,2 C,2 | F,6 :| %25

